X:3
T:dr Bärgröseler. Natur-Juiz.  A-Dur  ABAC
T:Emil Wallimann  (* 24.2.1957)
T:Dirigenten-Notiz  Edi Gasser
C:Unterwalden (CH)
%%partsbox
%P:ABAC
M:3/4
R:Naturjodel
L:1/8
K:A
Q:1/4=50
[P:A] A,B, | C>B, A,2 CD | E>D C2 Ec | B2e2 Ec | 
A>Bc2A,B, | C>B,A,2CD | E>DC2Ec | B2e2 Ec | A4 ||
M:4/4
Q:1/4=56
[P:B]  A2 C>BA2 B>A | GB, DE G2 E/D/ e/c/ | B2 D>cB2 c>B | AC EcA2 E/C/ e/c/ | 
A2C>BA2BA | f2dc !fermata!B2 E/D/ e/c/ | B>A GB Ee cB | A4z4 || 
M:4/4
L:1/8
[P:C]  A/G/F | E>C EAC2 B>A | G2EcB2 A/G/F | E>D cBD2 d/c/B | 
A>C EA C>C A/G/F | E>C EAC2 B>A | G2EcB2 A/G/F | E>D cBD2BG | 
!breath! A6A/G/F | E>C EAC2B>A | G2EcB2A/G/F | E>D cBD2 d/c/B | 
A>C EA C>C A/G/F | E>C EA C2 B>A | G2EcB2A/G/F | E>D cBD2BG | A6 |]
%W:Reihenfolge: ABAC
W:
W:notiert Edi Gasser. Angaben Emil Wallimann
W:UJV-Naturjodelsammlung: Code-Nr: 23-02
W:http://www.naturjodler.ch/code 23-1.htm  (with AUDIO)
%May 24, 2018

